X:142
T: Was ntzet mich mein Sehnen und Verlangen (2-32), S. 82f
N: K1116
O: Luxemburg
S: KINTZELE, Guillaume: An der Ucht, Bd. 2, Luxemburg 1927]
N: in der Quelle mit einer 2. Stimme versehen
R: erzhlendes Lied]
M: 4/4
L: 1/16
K: C
G2G3F | E6G2c2B2A2E2 | G4F4z2
F2F2d2 | d6c2B2A2G2F2 | E8z2
GFE2GG | e6d2c2B2A2G2 | F2d2d6
c2B2A2 | G6G2B2A2G2F2 | E8z2
GFE2GG | e6d2c2B2A2G2 | F2d2d6
c2B2A2 | G6G2B2A2G2F2 | E8z2

